X: 57
T: No_14_Song_With_Which_Two_Boys_Killed_Their_Grandmother.krn
N: Derived from No_14_Song_With_Which_Two_Boys_Killed_Their_Grandmother.krn
%%abc-version 2.0
%%abcx-abcm2ps-target-version 5.9.1 (29 Sep 2008)
%%abc-creator hum2abc beta
%%abcx-conversion-date 2019/03/15 08:37:56
%%humdrum-veritas 2178325642
%%humdrum-veritas-data 728554470
%%linebreak <none>
%%barnumbers 0
L: 1/8
M: 3/4
K: C clef=bass
_E,2 [I:setbarnb 1]| 
C4C_B, | 
_A,2F,2(3A,F,F, | 
F,4_B,3/_A,/ | 
_B,4_A,2 | 
_E,2C,2(3E,C,C, | 
C,4F,3/F,/ | 
F,4G,F, | 
!fermata!_E,2C,_B,, (3G,F,F, | 
F,6 |]  



